svg/material-icons/person_4/materialiconsoutlined/24px.svg

<svg xmlns="http://www.w3.org/2000/svg" width="24" height="24" viewBox="0 0 24 24"><path d="M18.39 14.56C16.71 13.7 14.53 13 12 13s-4.71.7-6.39 1.56A2.97 2.97 0 0 0 4 17.22V20h16v-2.78c0-1.12-.61-2.15-1.61-2.66zM18 18H6v-.78c0-.38.2-.72.52-.88C7.71 15.73 9.63 15 12 15c2.37 0 4.29.73 5.48 1.34.32.16.52.5.52.88V18zm-6-6c2.21 0 4-1.79 4-4V4.5c0-.83-.67-1.5-1.5-1.5-.52 0-.98.27-1.25.67-.27-.4-.73-.67-1.25-.67s-.98.27-1.25.67c-.27-.4-.73-.67-1.25-.67C8.67 3 8 3.67 8 4.5V8c0 2.21 1.79 4 4 4zm-2-6.5h4V8c0 1.1-.9 2-2 2s-2-.9-2-2V5.5z"/></svg>

<svg xmlns="http://www.w3.org/2000/svg" enable-background="new 0 0 24 24" height="24" viewBox="0 0 24 24" width="24"><g><rect fill="none" height="24" width="24"/></g><g><g><path d="M18.39,14.56C16.71,13.7,14.53,13,12,13c-2.53,0-4.71,0.7-6.39,1.56C4.61,15.07,4,16.1,4,17.22V20h16v-2.78 C20,16.1,19.39,15.07,18.39,14.56z M18,18H6v-0.78c0-0.38,0.2-0.72,0.52-0.88C7.71,15.73,9.63,15,12,15 c2.37,0,4.29,0.73,5.48,1.34C17.8,16.5,18,16.84,18,17.22V18z"/><path d="M12,12c2.21,0,4-1.79,4-4c0-1.37,0-3.5,0-3.5C16,3.67,15.33,3,14.5,3c-0.52,0-0.98,0.27-1.25,0.67 C12.98,3.27,12.52,3,12,3s-0.98,0.27-1.25,0.67C10.48,3.27,10.02,3,9.5,3C8.67,3,8,3.67,8,4.5c0,0,0,2.12,0,3.5 C8,10.21,9.79,12,12,12z M10,5.5h4V8c0,1.1-0.9,2-2,2s-2-0.9-2-2V5.5z"/></g></g></svg>
